www/assets/icons/center_focus_strong_outline.svg

<svg width="24" height="24" viewBox="0 0 24 24" xmlns="http://www.w3.org/2000/svg" fill='currentColor'><path d="M17 12C17 9.24 14.76 7 12 7C9.24 7 7 9.24 7 12C7 14.76 9.24 17 12 17C14.76 17 17 14.76 17 12ZM12 15C10.35 15 9 13.65 9 12C9 10.35 10.35 9 12 9C13.65 9 15 10.35 15 12C15 13.65 13.65 15 12 15ZM5 15H3V19C3 20.1 3.9 21 5 21H9V19H5V15ZM5 5H9V3H5C3.9 3 3 3.9 3 5V9H5V5ZM19 3H15V5H19V9H21V5C21 3.9 20.1 3 19 3ZM19 19H15V21H19C20.1 21 21 20.1 21 19V15H19V19Z"/></svg>

<svg xmlns="http://www.w3.org/2000/svg" width="24" height="24" viewBox="0 0 24 24" fill='currentColor'><path d="M17 12c0-2.76-2.24-5-5-5s-5 2.24-5 5 2.24 5 5 5 5-2.24 5-5m-5 3c-1.65 0-3-1.35-3-3s1.35-3 3-3 3 1.35 3 3-1.35 3-3 3m-7 0H3v4c0 1.1.9 2 2 2h4v-2H5zM5 5h4V3H5c-1.1 0-2 .9-2 2v4h2zm14-2h-4v2h4v4h2V5c0-1.1-.9-2-2-2m0 16h-4v2h4c1.1 0 2-.9 2-2v-4h-2z"/></svg>
